X:1
L:1/8
M:2/2
K:Ephr
""A"" | z2 |""E"" EFGA BcBA | G2 GE""Am"" A4 |""E"" B2 B2 dcBA | G2 GE""Am"" A4 |""E"" EFGA BcBA | 
 G2 GE""Am"" A4 |""E"" G2 G2""Dm"" FEFD |""E"" E6 :|[K:C]""B"" |:""G"" [GB]2 |""C"" cd e4 e2 |""G"" dedB G4 | 
""G7"" GABc defd |""C"" e2 ef""E"" edcB |""Am"" AB c4 c2 |""E"" BcB^G E4 | EF^GA BcBG |""Am"" A6 :| 
[K:Ephr]""C"" |: GF |""E"" E2 G2 E2 G2 |""Am"" A2 A2 dcBA |""E"" G2 G2""Am"" AGAc |""E"" B2 B2 e4 | 
""E"" E2 G2 E2 G2 |""Am"" A2 A2 dcBA |""E"" G2 G2""Dm"" FEFD |""E"" E6 :|
